packages/katcn/src/icons/svg/underline.svg

<svg width="24" height="25" viewBox="0 0 24 25" fill="none" xmlns="http://www.w3.org/2000/svg">
<path d="M19.9888 21.296H4.01124C3.40449 21.296 3 21.696 3 22.296C3 22.896 3.40449 23.296 4.01124 23.296H19.9888C20.5955 23.296 21 22.896 21 22.296C21 21.696 20.5955 21.296 19.9888 21.296Z" fill="black"/>
<path d="M21 1.29602H17.4C16.8 1.29602 16.4 1.68908 16.4 2.27868C16.4 2.86827 16.8 3.26134 17.4 3.26134H18.2V10.2382C18.2 12.8914 16.5 15.1515 14.1 15.9376C11.4 15.6428 9.8 12.7931 9.8 10.2382V3.26134H10.2C10.8 3.26134 11.2 2.86827 11.2 2.27868C11.2 1.68908 10.8 1.29602 10.2 1.29602H8.9H7.5H3C2.4 1.29602 2 1.68908 2 2.27868C2 2.86827 2.4 3.26134 3 3.26134H3.8V10.2382C3.8 14.6602 7.5 18.296 12 18.296C16.5 18.296 20.2 14.6602 20.2 10.2382V3.26134H21C21.6 3.26134 22 2.86827 22 2.27868C22 1.68908 21.6 1.29602 21 1.29602ZM5.8 10.2382V3.26134H7.5H7.9V10.2382C7.9 12.3018 8.7 14.4637 10.1 16.0359C7.6 15.2498 5.8 12.9897 5.8 10.2382Z" fill="black"/>
</svg>

<svg xmlns="http://www.w3.org/2000/svg" fill="none" viewBox="0 0 24 25"><path fill="#000" d="M19.989 21.296H4.01c-.607 0-1.011.4-1.011 1s.404 1 1.011 1h15.98c.607 0 1.011-.4 1.011-1s-.404-1-1.011-1m1.01-20h-3.6c-.6 0-1 .393-1 .983s.4.982 1 .982h.8v6.977c0 2.653-1.7 4.914-4.1 5.7-2.7-.295-4.3-3.145-4.3-5.7V3.261h.4c.6 0 1-.393 1-.982 0-.59-.4-.983-1-.983H3c-.6 0-1 .393-1 .983s.4.982 1 .982h.8v6.977c0 4.422 3.7 8.058 8.2 8.058s8.2-3.636 8.2-8.058V3.261h.8c.6 0 1-.393 1-.982 0-.59-.4-.983-1-.983M5.8 10.238V3.261h2.1v6.977c0 2.064.8 4.226 2.2 5.798-2.5-.786-4.3-3.046-4.3-5.798"/></svg>
